assets/img/icons/duotone-icons/Cooking/Shovel.svg

<?xml version="1.0" encoding="UTF-8"?>
<svg width="24px" height="24px" viewBox="0 0 24 24" version="1.1" xmlns="http://www.w3.org/2000/svg" xmlns:xlink="http://www.w3.org/1999/xlink">
    <!-- Generator: Sketch 52.2 (67145) - http://www.bohemiancoding.com/sketch -->
    <title>Stockholm-icons / Cooking / Shovel</title>
    <desc>Created with Sketch.</desc>
    <g id="Stockholm-icons-/-Cooking-/-Shovel" stroke="none" stroke-width="1" fill="none" fill-rule="evenodd">
        <rect id="bound" x="0" y="0" width="24" height="24"></rect>
        <path d="M8.52512627,14.5606602 L9.93933983,15.9748737 C10.3298641,16.365398 10.3298641,16.998563 9.93933983,17.3890873 L4.98959236,22.3388348 C4.59906807,22.7293591 3.96590309,22.7293591 3.5753788,22.3388348 L2.16116524,20.9246212 C1.77064094,20.5340969 1.77064094,19.9009319 2.16116524,19.5104076 L7.1109127,14.5606602 C7.501437,14.1701359 8.13460197,14.1701359 8.52512627,14.5606602 Z" id="Rectangle-84" fill="#335EEA" opacity="0.3"></path>
        <path d="M11.3535534,11.732233 L9.23223305,9.6109127 C8.45118446,8.82986412 8.45118446,7.56353416 9.23223305,6.78248558 L13.4748737,2.53984489 C14.2559223,1.75879631 15.5222523,1.75879631 16.3033009,2.53984489 L21.9601551,8.19669914 C22.7412037,8.97774772 22.7412037,10.2440777 21.9601551,11.0251263 L17.7175144,15.267767 C16.9364658,16.0488155 15.6701359,16.0488155 14.8890873,15.267767 L12.767767,13.1464466 L10.6464466,15.267767 L9.23223305,13.8535534 L11.3535534,11.732233 Z M15.2426407,4.30761184 L11,8.55025253 L11.7071068,9.25735931 L15.9497475,5.01471863 L15.2426407,4.30761184 Z M17.363961,6.42893219 L13.1213203,10.6715729 L13.8284271,11.3786797 L18.0710678,7.13603897 L17.363961,6.42893219 Z M19.4852814,8.55025253 L15.2426407,12.7928932 L15.9497475,13.5 L20.1923882,9.25735931 L19.4852814,8.55025253 Z" id="Combined-Shape" fill="#335EEA"></path>
    </g>
</svg>

<svg width="24" height="24" viewBox="0 0 24 24" xmlns="http://www.w3.org/2000/svg"><g fill="none" fill-rule="evenodd"><path d="M0 0h24v24H0z"/><path d="M8.525 14.56l1.414 1.415a1 1 0 010 1.414l-4.95 4.95a1 1 0 01-1.414 0l-1.414-1.414a1 1 0 010-1.415l4.95-4.95a1 1 0 011.414 0z" fill="#335EEA" opacity=".3"/><path d="M11.354 11.732L9.232 9.611a2 2 0 010-2.829l4.243-4.242a2 2 0 012.828 0l5.657 5.657a2 2 0 010 2.828l-4.242 4.243a2 2 0 01-2.829 0l-2.121-2.122-2.122 2.122-1.414-1.414 2.122-2.122zm3.889-7.424L11 8.55l.707.707 4.243-4.242-.707-.707zm2.121 2.12l-4.243 4.244.707.707 4.243-4.243-.707-.707zm2.121 2.122l-4.242 4.243.707.707 4.242-4.243-.707-.707z" fill="#335EEA"/></g></svg>
